images/decor-2.svg

<svg xmlns="http://www.w3.org/2000/svg" width="1124" height="1165" fill="none"><path stroke="#CCCCF5" stroke-width="4" d="m431.337 756.083 515.762-254.029v310.037L431.561 1064.32l-.224-308.237Z" opacity=".7"/><path stroke="#CCCCF5" stroke-width="4" d="M429.308 283.222 998.344 3.081l122.466 251.102-691.245 337.145-.257-308.106Z"/><path stroke="#CCCCF5" stroke-width="4" d="m271.341 486.083 515.762-254.029v350.037L271.565 834.323l-.224-348.24Z"/><path stroke="#CCCCF5" stroke-width="4" d="m2.34 853.083 515.763-254.029v310.037L2.565 1161.32 2.34 853.083Z"/></svg>

<svg width="1124" height="1165" viewBox="0 0 1124 1165" fill="none" xmlns="http://www.w3.org/2000/svg">
<path opacity="0.7" d="M431.337 756.083L947.099 502.054L947.099 812.091L431.561 1064.32L431.337 756.083Z" stroke="#CCCCF5" stroke-width="4"/>
<path d="M429.308 283.222L998.344 3.08088L1120.81 254.183L429.565 591.328L429.308 283.222Z" stroke="#CCCCF5" stroke-width="4"/>
<path d="M271.341 486.083L787.103 232.054L787.103 582.091L271.565 834.323L271.341 486.083Z" stroke="#CCCCF5" stroke-width="4"/>
<path d="M2.34075 853.083L518.103 599.054L518.103 909.091L2.56495 1161.32L2.34075 853.083Z" stroke="#CCCCF5" stroke-width="4"/>
</svg>
